X:550
T:Rambling Pitchfork
M:6/8
D:asin=B000000E8G(Paddy Glackin, Robbie Hannan: The Whirlwind)
D:anop=B000000G9H(Coleman, et al: The Wheels Of The World: Early...Vol. 1)
D:asin=B000005CS3(Matt Molloy, et al: Matt Molloy/Paul Brady/Tommy Peoples)
K:D
FEF AFF|DFF AFF|GFG ABc|ded cAG|\
FEF AFF|DFF AFF|GFG BAG|AFD D3::\
dcd fed|ecA AFA|dcd fed|faf gec|\
dcd fed|ecA AFA|GFG BAG|AFD D2A|\
dcd fed|ecA AFA|dcd fed|faf ~g3|\
agf gfe|fdB AFD|GFG BAG|AFD D2E||
